X: 1
T: Honest John
R: jig
M: 6/8
L: 1/8
K: Gmaj
"G"b3 a3|gfg B3|"D"cBc ABc|"G"ed^c d3|b3 a3|gfg B3|
"D"cBc DEF|"G"G3 G3:||:[K:D]"D"DFA DFA|DFA a2f|"A"gfg ABc|
"D"ecB AFE|DFA DFA|DFA a2g|"A"gfg ABc|"D"d3 d3:|

